src/assets/yellow-logo.svg

<svg fill="none" height="24" viewBox="0 0 259 24" width="259" xmlns="http://www.w3.org/2000/svg"><g fill="#ffc700"><path d="m23.2099 15.6339c-.8088-.7865-1.2114-1.1824-2.0184-1.978-4.6609-4.46214-9.2395-9.00611-13.73593-13.6319742h-7.45557s2.16357.8102842 2.03481 3.2484842v20.63119c1.77729-.1369 3.5546-.2707 5.33189-.4014v-16.15268c4.0854 4.00008 8.2329 7.93238 12.4428 11.79688 2.3576 2.0587 5.5931 3.2045 8.7233 2.9332.0084-7.3525.0181-14.7044.029-22.0556742h-5.3373c-.0049 5.2039442-.0097 10.4072742-.0146 15.6099742z"/><path d="m58.2697.735207c-1.064-.475419-2.5396-.7137212-4.427-.7149433h-11.8098c-1.9151 0-3.4119.2499243-4.4904.7497863-1.0785.49986-1.8341 1.23865-2.267 2.21638-.4316.97772-.6486 2.17911-.651 3.60414 0 2.83907-.0048 5.67993-.0145 8.52273 0 1.4519.2206 2.6588.6619 3.6206.4413.9619 1.2018 1.6573 2.2815 2.0862 1.0754.4308 2.5589.5903 4.445.4914 3.9354-.2054 7.8715-.3991 11.8081-.5812 1.9786-.0532 4.3526-.396 5.7853-1.8332 1.0536-1.0523 1.5832-2.6545 1.5868-4.6894 0-2.6717.0048-5.34209.0145-8.01128 0-1.34437-.2206-2.46996-.6619-3.3768s-1.1952-1.60166-2.2615-2.084413zm-2.4393 14.048093c.0118.3528-.0572.7037-.2016 1.0252-.1444.3214-.3603.6049-.6308.8282-.5537.4656-1.3287.718-2.325.7571-3.1665.1223-6.3329.2524-9.4994.3905-.9974.044-1.7833-.1448-2.3576-.5665-.5743-.4216-.8627-1.0461-.8651-1.8735 0-3.0945.0049-6.18842.0145-9.2817-.0097-.36027.0662-.71766.2215-1.04209.1552-.32444.3853-.60645.6708-.82232.5924-.46564 1.3747-.70274 2.3467-.7113l9.4995-.07698c.9702 0 1.7374.22915 2.3032.70396.2633.20265.4766.46419.6233.76411.1466.29992.2225.63009.2218.96464z"/><path d="m93.5126 2.64004c-.457-.86712-1.2695-1.52524-2.4447-1.959717-1.5143-.56097-3.4458-.7076243-5.0345-.6599602h-21.6666s3.3044.7736252 3.3007 2.7498472c-.0096 5.79792-.0199 11.59639-.0308 17.39559 6.1226-.2237 12.2452-.418 18.3677-.583 1.6993-.1045 3.4748-.1558 5.078-.7846 1.1716-.4602 1.9841-1.1385 2.4302-2.0166s.671-1.9707.671-3.287l.0109-7.60605c.0036-1.30038-.2237-2.38322-.6819-3.24851zm-4.6681 11.32936c-.0291 1.5693-1.0821 2.3759-3.1593 2.4199-4.2316.0953-8.4632.2023-12.6949.3208.0073-4.4767.0152-8.95471.0236-13.43391 4.2317-.022 8.4633-.04279 12.6949-.06235 1.1861 0 2.0082.22305 2.4665.66914.2206.20964.3956.46353.5136.74542.1181.28189.1766.5856.1719.89167-.0061 2.81585-.0115 5.63233-.0163 8.44933z"/><path d="m123.099.682064c-1.065-.442421-2.541-.6630174-4.429-.6617953h-11.808c-1.915 0-3.412.2230253-4.49.6691133-1.079.446088-1.834 1.101178-2.267 1.965248-.4318.86284-.6488 1.92794-.6513 3.19531v7.56396c0 1.2893.2213 2.3667.6643 3.232.442.8653 1.203 1.5075 2.283 1.9267 1.078.418 2.562.6135 4.452.5866 3.939-.0513 7.878-.091 11.817-.1191 1.937.022 4.304-.1833 5.787-1.4978 1.05-.9368 1.58-2.4199 1.58-4.3154 0-2.4859 0-4.97236 0-7.45944 0-1.24905-.223-2.29828-.667-3.14768-.445-.8494-1.202-1.4953-2.271-1.937716zm-2.405 12.946336c.011.3284-.059.6544-.204.9485s-.361.5471-.626.7362c-.553.4131-1.329.6227-2.327.6288-3.17.0196-6.34.0458-9.511.0788-.997.011-1.783-.1808-2.357-.5756-.279-.1826-.506-.4356-.658-.734-.152-.2983-.225-.6318-.211-.9672 0-2.7707 0-5.54129 0-8.31192-.006-.3317.073-.6593.229-.95119s.384-.53823.662-.71524c.593-.41431 1.375-.62208 2.346-.6233l9.505-.01649c.967 0 1.736.21998 2.305.65996.566.44181.851.9753.849 1.60043z"/><path d="m155.761.0201535c-2.781 4.9631765-5.569 9.9202465-8.366 14.8712465-2.741-4.96078-5.488-9.91785-8.242-14.8712465h-9.413s2.762.3501415 2.762 2.5830165v16.40383c1.781 0 3.562.0061 5.343.0183 0-4.0185 0-8.0375 0-12.05721h.404c.648 1.12561.973 1.68844 1.62 2.81771 1.704 3.0762 3.405 6.1542 5.103 9.234 1.959.0183 2.938.0275 4.897.0531 1.699-3.0676 3.396-6.1358 5.091-9.20462.629-1.12927.945-1.69575 1.574-2.82869h.446v6.11931 6.0681c1.778.0293 3.559.0617 5.341.0971-.007-6.4359-.015-12.87235-.024-19.3094516z"/><path d="m177.393.0202637c-3.9 6.4847663-7.841 12.9432363-11.824 19.3754363 1.969.044 3.939.0905 5.909.1393 1.048-1.6499 1.574-2.4913 2.622-4.1614 4.828.1051 9.655.2236 14.483.3556.958 1.7563 1.436 2.6399 2.394 4.4126 2.076.0795 4.152.1608 6.23.2439-3.889-6.8258-7.837-13.61424-11.847-20.3654363zm-1.84 12.1140363c1.864-3.02242 3.719-6.05091 5.565-9.08553h.405c1.865 3.0945 3.718 6.19631 5.558 9.30543-3.843-.0794-7.686-.1527-11.528-.2199z"/><path d="m222.567 12.6366c.77-.3497 1.443-.8855 1.959-1.5601.433-.5759.748-1.23342.927-1.93403.152-.59047.232-1.19748.239-1.80759v-.70395c-.006-.73372-.075-1.4655-.207-2.18704-.141-.78183-.451-1.52277-.906-2.17057-.473-.67829-1.202-1.22826-2.188-1.649907-.985-.421644-2.34-.62939283-4.064-.62328204h-20.823s3.306.61778404 3.311 2.82499904c.011 5.90913.022 11.81767.031 17.72557 1.781.077 3.561.1564 5.339.2383 0-2.6228-.004-5.2461-.014-7.8701l1.253.0367c2.131.0623 3.185.3556 4.594.8891 1.749.6753 3.424 1.5356 4.994 2.5665 2.843 1.8919 5.668 3.8071 8.475 5.7454 2.61.1552 5.219.3153 7.826.4803-4.596-3.2485-9.293-6.3888-14.081-9.3385 1.375-.0293 2.487-.2499 3.335-.6618zm-7.586-2.77001c-.809.01589-1.725.01221-2.749-.01101-.863-.02078-1.794-.05376-2.791-.09898-.998-.04522-2.089-.11672-3.276-.2145l-.01-6.14133 11.039.08983c1.186.00855 2.009.28292 2.468.82312.464.55118.71 1.25636.691 1.9799v.83961c.016.33844-.039.67647-.16.99224-.122.31576-.308.60225-.546.841-.469.4638-1.313.75713-2.484.83229-.637.02567-1.373.04217-2.182.06783z"/><path d="m253.666.0238077v16.9995923c0 1.2319-.323 2.0489-.968 2.451-.681.4087-1.473.5902-2.262.5188-2.854-.1784-5.709-.3501-8.565-.5151-.823-.0233-1.623-.2827-2.305-.748-.62-.4436-.931-1.2667-.932-2.4693l-.017-16.2388273h-5.339c.007 5.2797173.014 10.5600273.02 15.8409273-.076 1.6133.454 3.7142 1.462 5.0011 1.211 1.5454 3.264 2.1119 5.134 2.1999 4.189.286 8.377.586 12.564.9001 1.669.1247 2.975-.0751 3.918-.6123.935-.5295 1.651-1.3802 2.018-2.3979.405-1.0596.606-2.33.606-3.8003v-17.1296923z"/></g></svg>

<svg width="259" height="24" viewBox="0 0 259 24" fill="none" xmlns="http://www.w3.org/2000/svg">
<path d="M23.2099 15.6339C22.4011 14.8474 21.9985 14.4515 21.1915 13.6559C16.5306 9.19376 11.952 4.64979 7.45557 0.0239258H0C0 0.0239258 2.16357 0.83421 2.03481 3.27241C2.03481 10.1507 2.03481 17.0278 2.03481 23.9036C3.8121 23.7667 5.58941 23.6329 7.3667 23.5022V7.34952C11.4521 11.3496 15.5996 15.2819 19.8095 19.1464C22.1671 21.2051 25.4026 22.3509 28.5328 22.0796C28.5412 14.7271 28.5509 7.3752 28.5618 0.0239258H23.2245C23.2196 5.22787 23.2148 10.4312 23.2099 15.6339Z" fill="#FFC700"/>
<path d="M58.2697 0.735207C57.2057 0.259788 55.7301 0.0214858 53.8427 0.0202637H42.0329C40.1178 0.0202637 38.621 0.270188 37.5425 0.77005C36.464 1.26991 35.7084 2.0087 35.2755 2.98643C34.8439 3.96415 34.6269 5.16554 34.6245 6.59057C34.6245 9.42964 34.6197 12.2705 34.61 15.1133C34.61 16.5652 34.8306 17.7721 35.2719 18.7339C35.7132 19.6958 36.4737 20.3912 37.5534 20.8201C38.6288 21.2509 40.1123 21.4104 41.9984 21.3115C45.9338 21.1061 49.8699 20.9124 53.8065 20.7303C55.7851 20.6771 58.1591 20.3343 59.5918 18.8971C60.6454 17.8448 61.175 16.2426 61.1786 14.2077C61.1786 11.536 61.1834 8.86561 61.1931 6.19642C61.1931 4.85205 60.9725 3.72646 60.5312 2.81962C60.0899 1.91278 59.336 1.21796 58.2697 0.735207ZM55.8304 14.7833C55.8422 15.1361 55.7732 15.487 55.6288 15.8085C55.4844 16.1299 55.2685 16.4134 54.998 16.6367C54.4443 17.1023 53.6693 17.3547 52.673 17.3938C49.5065 17.5161 46.3401 17.6462 43.1736 17.7843C42.1762 17.8283 41.3903 17.6395 40.816 17.2178C40.2417 16.7962 39.9533 16.1717 39.9509 15.3443C39.9509 12.2498 39.9558 9.15588 39.9654 6.0626C39.9557 5.70233 40.0316 5.34494 40.1869 5.02051C40.3421 4.69607 40.5722 4.41406 40.8577 4.19819C41.4501 3.73255 42.2324 3.49545 43.2044 3.48689L52.7039 3.40991C53.6741 3.40991 54.4413 3.63906 55.0071 4.11387C55.2704 4.31652 55.4837 4.57806 55.6304 4.87798C55.777 5.1779 55.8529 5.50807 55.8522 5.84262L55.8304 14.7833Z" fill="#FFC700"/>
<path d="M93.5126 2.64004C93.0556 1.77292 92.2431 1.1148 91.0679 0.680323C89.5536 0.119353 87.6221 -0.0273013 86.0334 0.0203628H64.3668C64.3668 0.0203628 67.6712 0.793988 67.6675 2.77021C67.6579 8.56813 67.6476 14.3666 67.6367 20.1658C73.7593 19.9421 79.8819 19.7478 86.0044 19.5828C87.7037 19.4783 89.4792 19.427 91.0824 18.7982C92.254 18.338 93.0665 17.6597 93.5126 16.7816C93.9587 15.9035 94.1836 14.8109 94.1836 13.4946L94.1945 5.88855C94.1981 4.58817 93.9708 3.50533 93.5126 2.64004ZM88.8445 13.9694C88.8154 15.5387 87.7624 16.3453 85.6852 16.3893C81.4536 16.4846 77.222 16.5916 72.9903 16.7101C72.9976 12.2334 73.0055 7.75539 73.0139 3.27619C77.2456 3.25419 81.4772 3.2334 85.7088 3.21384C86.8949 3.21384 87.717 3.43689 88.1753 3.88298C88.3959 4.09262 88.5709 4.34651 88.6889 4.6284C88.807 4.91029 88.8655 5.214 88.8608 5.52007C88.8547 8.33592 88.8493 11.1524 88.8445 13.9694Z" fill="#FFC700"/>
<path d="M123.099 0.682064C122.034 0.239643 120.558 0.0190466 118.67 0.0202687H106.862C104.947 0.0202687 103.45 0.243294 102.372 0.689382C101.293 1.13547 100.538 1.79056 100.105 2.65463C99.6732 3.51747 99.4562 4.58257 99.4537 5.84994C99.4537 8.37125 99.4537 10.8926 99.4537 13.4139C99.4537 14.7032 99.675 15.7806 100.118 16.6459C100.56 17.5112 101.321 18.1534 102.401 18.5726C103.479 18.9906 104.963 19.1861 106.853 19.1592C110.792 19.1079 114.731 19.0682 118.67 19.0401C120.607 19.0621 122.974 18.8568 124.457 17.5423C125.507 16.6055 126.037 15.1224 126.037 13.2269C126.037 10.741 126.037 8.25454 126.037 5.76746C126.037 4.51841 125.814 3.46918 125.37 2.61978C124.925 1.77038 124.168 1.12448 123.099 0.682064ZM120.694 13.6284C120.705 13.9568 120.635 14.2828 120.49 14.5769C120.345 14.871 120.129 15.124 119.864 15.3131C119.311 15.7262 118.535 15.9358 117.537 15.9419C114.367 15.9615 111.197 15.9877 108.026 16.0207C107.029 16.0317 106.243 15.8399 105.669 15.4451C105.39 15.2625 105.163 15.0095 105.011 14.7111C104.859 14.4128 104.786 14.0793 104.8 13.7439C104.8 10.9732 104.8 8.20261 104.8 5.43198C104.794 5.10028 104.873 4.77268 105.029 4.48079C105.185 4.1889 105.413 3.94256 105.691 3.76555C106.284 3.35124 107.066 3.14347 108.037 3.14225L117.542 3.12576C118.509 3.12576 119.278 3.34574 119.847 3.78572C120.413 4.22753 120.698 4.76102 120.696 5.38615L120.694 13.6284Z" fill="#FFC700"/>
<path d="M155.761 0.0201535C152.98 4.98333 150.192 9.9404 147.395 14.8914C144.654 9.93062 141.907 4.97355 139.153 0.0201535H129.74C129.74 0.0201535 132.502 0.370295 132.502 2.60317C132.502 8.0711 132.502 13.539 132.502 19.007C134.283 19.007 136.064 19.0131 137.845 19.0253C137.845 15.0068 137.845 10.9878 137.845 6.96809H138.249C138.897 8.0937 139.222 8.65653 139.869 9.7858C141.573 12.862 143.274 15.94 144.972 19.0198C146.931 19.0381 147.91 19.0473 149.869 19.0729C151.568 16.0053 153.265 12.9371 154.96 9.86828C155.589 8.73901 155.905 8.17253 156.534 7.03959H156.98V13.1589C156.98 15.1804 156.98 17.2031 156.98 19.227C158.758 19.2563 160.539 19.2887 162.321 19.3241C162.314 12.8882 162.306 6.45175 162.297 0.0146484L155.761 0.0201535Z" fill="#FFC700"/>
<path d="M177.393 0.0202637C173.493 6.50503 169.552 12.9635 165.569 19.3957C167.538 19.4397 169.508 19.4862 171.478 19.535C172.526 17.8851 173.052 17.0437 174.1 15.3736C178.928 15.4787 183.755 15.5972 188.583 15.7292C189.541 17.4855 190.019 18.3691 190.977 20.1418C193.053 20.2213 195.129 20.3026 197.207 20.3857C193.318 13.5599 189.37 6.77146 185.36 0.0202637H177.393ZM175.553 12.1343C177.417 9.11188 179.272 6.08339 181.118 3.04877H181.523C183.388 6.14327 185.241 9.24508 187.081 12.3542C183.238 12.2748 179.395 12.2015 175.553 12.1343Z" fill="#FFC700"/>
<path d="M222.567 12.6366C223.337 12.2869 224.01 11.7511 224.526 11.0765C224.959 10.5006 225.274 9.84308 225.453 9.14247C225.605 8.552 225.685 7.94499 225.692 7.33488V6.63093C225.686 5.89721 225.617 5.16543 225.485 4.44389C225.344 3.66206 225.034 2.92112 224.579 2.27332C224.106 1.59503 223.377 1.04506 222.391 0.623413C221.406 0.201769 220.051 -0.00597983 218.327 0.000130956H197.504C197.504 0.000130956 200.81 0.617915 200.815 2.82513C200.826 8.73426 200.837 14.6428 200.846 20.5507C202.627 20.6277 204.407 20.7071 206.185 20.789C206.185 18.1662 206.181 15.5429 206.171 12.9189L207.424 12.9556C209.555 13.0179 210.609 13.3112 212.018 13.8447C213.767 14.52 215.442 15.3803 217.012 16.4112C219.855 18.3031 222.68 20.2183 225.487 22.1566C228.097 22.3118 230.706 22.4719 233.313 22.6369C228.717 19.3884 224.02 16.2481 219.232 13.2984C220.607 13.2691 221.719 13.0485 222.567 12.6366ZM214.981 9.86659C214.172 9.88248 213.256 9.8788 212.232 9.85558C211.369 9.8348 210.438 9.80182 209.441 9.7566C208.443 9.71138 207.352 9.63988 206.165 9.5421L206.155 3.40077L217.194 3.4906C218.38 3.49915 219.203 3.77352 219.662 4.31372C220.126 4.8649 220.372 5.57008 220.353 6.29362C220.353 6.6291 220.353 6.79775 220.353 7.13323C220.369 7.47167 220.314 7.8097 220.193 8.12547C220.071 8.44123 219.885 8.72772 219.647 8.96647C219.178 9.43027 218.334 9.7236 217.163 9.79876C216.526 9.82443 215.79 9.84093 214.981 9.86659Z" fill="#FFC700"/>
<path d="M253.666 0.0238077V17.0234C253.666 18.2553 253.343 19.0723 252.698 19.4744C252.017 19.8831 251.225 20.0646 250.436 19.9932C247.582 19.8148 244.727 19.6431 241.871 19.4781C241.048 19.4548 240.248 19.1954 239.566 18.7301C238.946 18.2865 238.635 17.4634 238.634 16.2608L238.617 0.0219727H233.278C233.285 5.30169 233.292 10.582 233.298 15.8629C233.222 17.4762 233.752 19.5771 234.76 20.864C235.971 22.4094 238.024 22.9759 239.894 23.0639C244.083 23.3499 248.271 23.6499 252.458 23.964C254.127 24.0887 255.433 23.8889 256.376 23.3517C257.311 22.8222 258.027 21.9715 258.394 20.9538C258.799 19.8942 259 18.6238 259 17.1535V0.0238077H253.666Z" fill="#FFC700"/>
</svg>
